X: 1
T: the Glencoe Bridge Schottische
C: Dan R MacDonald (Cape Breton)
S: handwritten page from Barbara McOwen in the Concord Slow Scottish Session collection
Z: 2015 John Chambers <jc:trillian.mit.edu>
M: 4/4
L: 1/8
K: D
   F>G | "D"A2d2 F2d2 | "D"A>F A<d f3a | "G"g3e "A7"c>A c<e |[1,3 "D"d>c d<B "A7"A2 :|[2,4 "D"d2d2 d2 :|
|: f>g | "D"a3g f>d f<a | "G"g3e "A7"c>A c<e | "D"d>c d<e "Bm"f>d f<a | "Em"g>f g<b "A7"a2
[1 f>g | "D"a3g f>d f<a | "G"g3e "A7"c>A c<e | "D"d>c d<f "A7"e>a c<e | "D"d2d2 d2 :|
[2 f>g | "D"(3agf "A7"g>e "D"f>d "A7"e<c | "D"d>B A<F "D7"D>F A<d | "G"B>G B<d "A"c>A c<e | "D"d2d2 d2 |]

%%sep 1 1 500

